X:1
T:Title
%%score { ( 1 4 ) | ( 2 3 ) }
L:1/8
M:4/4
K:G
V:1 treble nm="Grand Piano"
V:4 treble 
V:2 bass 
V:3 bass 
V:1
 z4 z2[Q:1/4=116] .D2 | [G,B,G]2 [G,EG]2 [G,DG]2 .[F,CD]2 | [G,B,G]2 [G,EG]2 [G,DG]2 [G,B,G]2 | %3
 [DA]2 [^CGA][GA] [DFA]2 [A,CE]2 |[M:3/4] [DA]2 [^CGA]2 [DFA]2 |[M:1/4] [EA]2 | %6
[M:4/4] [^DB]2 [EB]2 [FB]2 [B,DF]2 | [EB]2 [^DAB]2 [EGB]2 z2 | z4 ^c2 z2 | %9
[M:3/4] [Fd]2 [CDFAd]2 d2 |[M:1/4] DD |[M:4/4] A2 z2 A2 .E2 | z4 [DF]4 | [DGd]2 [^G,D]2 [DA]2 A2 | %14
 D2 D2 [Fc]4 | B2 B>c B2 G2 | D2 [DE]2 [CF]4 | [Fc]2 [Fc]>[Fd] [Fc]2 [DF]2 | %18
 [CE]2 [B,D]2 [B,D]2 [B,D]2 | d2 d2 d2 BB | c2 c2 E2 E2 | D2 B>c B3 A | %22
[M:3/4] [B,DG]2 [CEG]2 [B,DG]2 |] %23
V:2
 z4 z2 z D | G,,2 C,2 B,,2 z D | G,,2 C,2 B,,2 A,,2 | F,2 z ^C D,2 G,2 |[M:3/4] F,2 E,2 D,2 | %5
[M:1/4] C,2 |[M:4/4] B,,2 ^C,2 ^D,2 A,2 | G,2 F,2 z2[K:treble] B2 | A,4[K:bass] z4 | %9
[M:3/4] [B,,B,]2 A,,2 [G,,B,DG]2 |[M:1/4] [^G,,=F,]2 |[M:4/4] F,2 z2 z2 G,2 | F,2 E,2 D,2 C,2 | %13
 z4 ^F,2 z2 | [D,F,A,]2 [D,G,B,]2 [D,A,]4 | [G,D]2 [G,D]>[G,E] [G,D]2 [G,B,]2 | %16
 [B,,G,]2 [_B,,G,]2 [A,,D,]4 | [D,A,]2 [D,A,]>[D,A,] [D,A,]2 [D,A,]2 | %18
 [G,,G,]2 [G,,G,]2 [G,,G,]2 [G,,G,]2 | [G,B,D]2 [G,B,D]2 [E,^G,D]2 [E,G,E][E,G,E] | %20
 [A,E]2 [A,E]2 [C,A,]2 [^C,G,_B,]2 | [D,G,B,]2 [D,G,D]>[D,A,D] [D,G,D]3 [D,CD] | %22
[M:3/4] [G,,G,]2 [G,,G,]2 [G,,G,]2 |] %23
V:3
 z4 z2 D,2 | z4 z2 A,,2 | x8 | z2 E,2 z4 |[M:3/4] x6 |[M:1/4] x2 |[M:4/4] x8 | z4 E,4[K:treble] | %8
 z2[K:bass] G,2 F,F,,^G,,_B,, |[M:3/4] x6 |[M:1/4] x2 |[M:4/4] A,,4 [A,,E,]2 z E | x8 | %13
 [B,,G,]2 [_B,,=F,]2 A,,2- [A,,G,^C]2 | x8 | x8 | x8 | x8 | x8 | x8 | x8 | x8 |[M:3/4] x6 |] %23
V:4
 x8 | x8 | x8 | x8 |[M:3/4] x6 |[M:1/4] x2 |[M:4/4] x8 | x8 | [G^c]2 [Ec]2 [F_B]2- [F-B-e][FBe] | %9
[M:3/4] x6 |[M:1/4] x2 |[M:4/4] D2- [A,DF]2 ^C2- [A,-C]2 | [A,-DA]2 [A,-^CGA]2 [A,A]2 [A,A]2 | x8 | %14
 x8 | x8 | x8 | x8 | x8 | x8 | x8 | x8 |[M:3/4] x6 |] %23

